X: 51
T: Traditional Strathspey
T: Strathspey, A
L: 1/16
M: C
K: A
|: c3B A3g ag3 f4 | e3c Bc3 f4 B3d | c3B A3g ag3 f3e | df3 ec3 B4 A3d:| 
|: c3B A3e AAA2 A3c | d3c B3f BBB2 B3d |[1 c3B A3e AAA2 A3c | d3f ec3 B4 A3d]:|
[2 c3B A3g ag3 f3e |df3 ec3 B4 A3d|] 
D: Kinnon and Betty Beaton, Saturday Night Lively, KB20M98
